X:0336
T:Campbell's Allemande.
M:2/4
L:1/8
Q:1/4=140
I: :: ||
Z:Jack Campin * www.campin.me.uk * 2009
K:D
d2  fa          |d2   gb      |afed       | ce     AF |\
FA  dF          |Gceg         |fedc       | dDFA      |
d2 (f/g/a)      |d2  (g/a/b)  |afed       |(c/d/e) AG |\
F2 (f/g/a/)A/   |Bgbg         |fedc       | d2     D2:|
d2  d'd         |c'd bd       |ad e/d/c/e/| gecA      |\
Gbd'G           |Fad'f        |gedc       | dDFA      |
d2  d'd         |c'dbd        |ad e/d/c/d/| gecA      |\
G2 (b/c'/d'/).G/|F2  a/b/c'/f/|gedc       | d2     D2:|

